X:1
T: Lonach Hall
C:Alexander Walker
R:Strathspey
Q: 128
K:C
M:4/4
L:1/16
|:A2|G3E c3E D3C A,4|G3E c3G AAA2 A4|G3E c3E D3C A,3f|gc3 g3e d4 c2A2|
G3E c3E D3C A,4|G3E c3G AAA2 A4|G3E c3E D3C A,3f|gc3 g3e d4 c2ef|
g3c g3e gc3 e3f|ad3 a3g ad3 fa3|gc3 g3e gc3 eg3|ag3 c'3e d4 c2ef|
gc3 g3e gc3 eg3|ad3 a3g ad3 fa3|ge3 d3e c3G A3c|GE3 c3E D4 C2:|
